icons/grpc-light.svg

<svg width="256" height="256" viewBox="0 0 256 256" fill="none" xmlns="http://www.w3.org/2000/svg">
<path d="M196 0H60C26.8629 0 0 26.8629 0 60V196C0 229.137 26.8629 256 60 256H196C229.137 256 256 229.137 256 196V60C256 26.8629 229.137 0 196 0Z" fill="#F4F2ED"/>
<path fill-rule="evenodd" clip-rule="evenodd" d="M101.149 123.06H107.221C109.106 123.06 110.607 122.808 111.724 122.305C112.84 121.801 113.696 121.08 114.289 120.14C114.882 119.2 115.284 118.042 115.493 116.666C115.702 115.29 115.807 113.696 115.807 111.884C115.807 110.071 115.702 108.477 115.493 107.101C115.284 105.725 114.847 104.55 114.184 103.577C113.521 102.603 112.596 101.882 111.41 101.412C110.223 100.942 108.652 100.707 106.698 100.707H101.149V123.06ZM90.4689 90.6298H107.64C120.205 90.6298 126.487 97.9428 126.487 112.569C126.487 116.908 125.806 120.634 124.445 123.749C123.084 126.863 120.693 129.365 117.273 131.254L128.79 165.37H117.482L107.367 132.905H101.149V165.37H90.4689V90.6298ZM135.072 90.6298H151.092C154.024 90.6298 156.606 91.0147 158.84 91.7845C161.074 92.5543 163.098 93.919 164.913 95.8785C166.728 97.8379 167.984 100.13 168.682 102.754C169.38 105.378 169.729 108.93 169.729 113.409C169.729 116.698 169.466 119.052 169.082 121.397C168.698 123.741 167.459 127.82 162.591 130.587C159.546 132.318 155.175 132.94 151.197 132.94H145.752V165.37H135.072V90.6298ZM145.752 123.06H150.883C153.047 123.06 154.722 122.783 155.908 122.229C157.095 121.674 157.968 120.92 158.526 119.966C159.084 119.011 159.416 117.857 159.521 116.502C159.625 115.147 159.678 113.639 159.678 111.976C159.678 110.437 159.625 108.974 159.521 107.589C159.416 106.203 159.102 105.002 158.578 103.986C158.055 102.97 157.235 102.17 156.118 101.585C155.001 101 153.396 100.707 151.301 100.707H145.752V123.06ZM211.611 148.68C211.611 150.989 211.174 153.193 210.302 155.293C209.429 157.392 208.225 159.229 206.689 160.804C205.154 162.378 203.356 163.638 201.297 164.583C199.238 165.528 197.022 166 194.649 166C192.624 166 190.565 165.72 188.471 165.16C186.377 164.6 184.492 163.638 182.817 162.273C181.142 160.909 179.763 159.107 178.681 156.867C177.599 154.628 177.058 151.794 177.058 148.365V107.215C177.058 104.766 177.477 102.492 178.315 100.392C179.153 98.2928 180.339 96.4733 181.875 94.9337C183.41 93.3941 185.243 92.1869 187.372 91.3122C189.501 90.4374 191.856 90 194.439 90C196.882 90 199.151 90.4374 201.245 91.3122C203.339 92.1869 205.154 93.4116 206.689 94.9862C208.225 96.5608 209.429 98.4503 210.302 100.655C211.174 102.859 211.611 105.256 211.611 107.845V112.044H200.931V108.475C200.931 106.376 200.337 104.556 199.151 103.017C197.964 101.477 196.359 100.707 194.334 100.707C191.682 100.707 189.92 101.529 189.047 103.174C188.174 104.819 187.738 106.901 187.738 109.42V147.63C187.738 149.799 188.209 151.619 189.152 153.088C190.094 154.558 191.787 155.293 194.23 155.293C194.928 155.293 195.678 155.17 196.481 154.925C197.284 154.68 198.017 154.278 198.68 153.718C199.343 153.158 199.884 152.389 200.303 151.409C200.721 150.429 200.931 149.204 200.931 147.735V144.061H211.611V148.68ZM232.535 127.905C232.535 125.177 230.331 122.965 227.612 122.965H200.94V132.845H222.689V143.865H219.337L227.669 155.645L236 143.865H232.535V127.905ZM45.2371 132.94V147.735C45.2371 150.814 45.7606 153.491 46.8076 155.765C47.8546 158.04 49.2332 159.929 50.9434 161.434C52.6535 162.938 54.5731 164.076 56.7021 164.845C58.831 165.615 60.9774 166 63.1413 166C65.3052 166 67.4516 165.615 69.5806 164.845C71.7095 164.076 73.6291 162.938 75.3392 161.434C77.0494 159.929 78.428 158.04 79.475 155.765C80.5221 153.491 81.0456 150.814 81.0456 147.735V123.081L61.9091 123.052L61.8849 132.937H70.3658V147.735C70.3658 150.324 69.6504 152.231 68.2194 153.456C66.7885 154.68 65.0958 155.293 63.1413 155.293C61.1868 155.293 59.4942 154.68 58.0632 153.456C56.6323 152.231 55.9168 150.324 55.9168 147.735V108.265C55.9168 105.676 56.6323 103.769 58.0632 102.544C59.4942 101.32 61.1868 100.707 63.1413 100.707C65.0958 100.707 66.7885 101.32 68.2194 102.544C69.6504 103.769 70.3658 105.676 70.3658 108.265V112.044H81.0456V108.265C81.0456 105.256 80.5221 102.597 79.475 100.287C78.428 97.9779 77.0494 96.0709 75.3392 94.5663C73.6291 93.0617 71.7095 91.9245 69.5806 91.1547C67.4516 90.3849 65.3052 90 63.1413 90C60.9774 90 58.831 90.3849 56.7021 91.1547C54.5731 91.9245 52.6535 93.0617 50.9434 94.5663C49.2332 96.0709 47.8546 97.9779 46.8076 100.287C45.7606 102.597 45.2371 105.256 45.2371 108.265V123.06H34.3113V112.04H37.663L29.3315 100.26L21 112.04H24.465V128C24.465 130.728 26.6691 132.94 29.3881 132.94H45.2371Z" fill="#2DA6B0"/>
</svg>

<svg xmlns="http://www.w3.org/2000/svg" width="256" height="256" fill="none"><path fill="#F4F2ED" d="M196 0H60C26.863 0 0 26.863 0 60v136c0 33.137 26.863 60 60 60h136c33.137 0 60-26.863 60-60V60c0-33.137-26.863-60-60-60"/><path fill="#2DA6B0" fill-rule="evenodd" d="M101.149 123.06h6.072q2.828 0 4.503-.755t2.565-2.165 1.204-3.474.314-4.782q0-2.72-.314-4.783t-1.309-3.524q-.995-1.46-2.774-2.165-1.78-.705-4.712-.705h-5.549zm-10.68-32.43h17.171q18.847 0 18.847 21.939 0 6.508-2.042 11.18t-7.172 7.505l11.517 34.116h-11.308l-10.115-32.465h-6.218v32.465h-10.68zm44.603 0h16.02q4.398 0 7.748 1.154 3.35 1.155 6.073 4.094 2.722 2.94 3.769 6.876t1.047 10.655c0 3.289-.263 5.643-.647 7.988-.384 2.344-1.623 6.423-6.491 9.19-3.045 1.731-7.416 2.353-11.394 2.353h-5.445v32.43h-10.68zm10.68 32.43h5.131q3.246 0 5.025-.831 1.78-.832 2.618-2.263t.995-3.464.157-4.526q0-2.309-.157-4.387-.157-2.079-.943-3.603t-2.46-2.401-4.817-.878h-5.549zm65.859 25.62q0 3.463-1.309 6.613-1.31 3.149-3.613 5.511a17.9 17.9 0 0 1-5.392 3.779Q198.208 166 194.649 166q-3.037 0-6.178-.84a15 15 0 0 1-5.654-2.887q-2.513-2.046-4.136-5.406t-1.623-8.502v-41.15q0-3.673 1.257-6.823t3.56-5.458q2.303-2.31 5.497-3.622T194.439 90q3.665 0 6.806 1.312t5.444 3.674q2.304 2.362 3.613 5.669t1.309 7.19v4.199h-10.68v-3.569q0-3.149-1.78-5.458t-4.817-2.31q-3.978 0-5.287 2.467-1.31 2.468-1.309 6.246v38.21q0 3.254 1.414 5.458t5.078 2.205q1.047 0 2.251-.368a6.2 6.2 0 0 0 2.199-1.207q.995-.84 1.623-2.309.627-1.47.628-3.674v-3.674h10.68zm20.924-20.775c0-2.728-2.204-4.94-4.923-4.94H200.94v9.88h21.749v11.02h-3.352l8.332 11.78 8.331-11.78h-3.465zM45.237 132.94v14.795q0 4.619 1.57 8.03 1.572 3.412 4.136 5.669a17.8 17.8 0 0 0 5.76 3.411Q59.894 166 63.14 166t6.44-1.155a17.8 17.8 0 0 0 5.758-3.411q2.565-2.257 4.136-5.669 1.57-3.411 1.57-8.03v-24.654l-19.136-.029-.024 9.885h8.48v14.798q0 3.884-2.146 5.721-2.145 1.836-5.078 1.837-2.931 0-5.078-1.837-2.145-1.838-2.146-5.721v-39.47q0-3.883 2.146-5.721 2.147-1.837 5.078-1.837 2.933 0 5.078 1.837 2.147 1.838 2.147 5.721v3.779h10.68v-3.779q0-4.513-1.571-7.978t-4.136-5.72a17.8 17.8 0 0 0-5.758-3.412Q66.387 90 63.14 90t-6.439 1.155a17.8 17.8 0 0 0-5.759 3.411q-2.565 2.257-4.135 5.721t-1.57 7.978v14.795H34.31v-11.02h3.352l-8.331-11.78L21 112.04h3.465V128c0 2.728 2.204 4.94 4.923 4.94z" clip-rule="evenodd"/></svg>
